X:8
T:Old Time Wedding Reel #1
R:Reel
A:Cape Breton
S:Sandy MacIntyre
N:From the playing of Sandy MacIntyre
Z:Transcribed Nov 20 1998 by Wil Macaulay
M:C
L:1/8
K:Amin
B | AGEG AGEG | cdcA G2Gc | A/A/A cd edce | cAcd e2eg |
abag egdB | cAGE c2cd | edcA GEcE | D/D/D EG A3 :|
|:g | ageg agea | gedB g2gb | agea gbed | cAcd e2eg |
abag egdB | cAGE c2cd | edcA GEcE | D/D/D EG A3 :|
